(Code by Newfangled Wizard, 15/01/2017)
(Version 2.86)
(Program Posted for Aluminum )
G0 G49 G40.1 G17
G80 G50 G90 G98  
G21 (mm)
(****DB 25 Pin****)
M6 T7(TOOL DIA. 3)
G43 H7
M03 S4000
M7 (Mist On)
G0  X18.6665 Y-3.1674 
X18.6665 Y-3.1674 Z2 
G1 X18.6665 Y-3.1674 Z-1 F39.6 
G41  P1.5 X20.4013 Y-3.9116 F79.2 
G3  X21.0007 Y-2.3038 R2.46126 
G1 X21.0007 Y-1.6002 
X23.3959 Y-1.6002 
G3  X24.9961 Y0 R1.6002 
X23.3959 Y1.6002 R1.6002 
G1 X21.0007 Y1.6002 
X21.0007 Y2.3241 
G3  X17.8257 Y5.4991 R3.175 
G1 X-17.8257 Y5.4991 
G3  X-21.0007 Y2.3241 R3.175 
G1 X-21.0007 Y1.6002 
X-23.3959 Y1.6002 
G3  X-24.9961 Y0 R1.6002 
X-23.3959 Y-1.6002 R1.6002 
G1 X-21.0007 Y-1.6002 
X-21.0007 Y-2.3241 
G3  X-17.8257 Y-5.4991 R3.175 
G1 X17.8257 Y-5.4991 
G3  X21.0007 Y-2.3241 R3.175 
G1 X21.0007 Y-1.6002 
G3  X21.8491 Y-0.7772 R1.69672 
G1  G40 X20.4241 Y-0.0178 
G0  X20.4241 Y-0.0178 Z2 
G0  X18.6665 Y-3.1674 
X18.6665 Y-3.1674 Z2 
G1 X18.6665 Y-3.1674 Z-2 F39.6 
G41  P1.5 X20.4013 Y-3.9116 F79.2 
G3  X21.0007 Y-2.3038 R2.46126 
G1 X21.0007 Y-1.6002 
X23.3959 Y-1.6002 
G3  X24.9961 Y0 R1.6002 
X23.3959 Y1.6002 R1.6002 
G1 X21.0007 Y1.6002 
X21.0007 Y2.3241 
G3  X17.8257 Y5.4991 R3.175 
G1 X-17.8257 Y5.4991 
G3  X-21.0007 Y2.3241 R3.175 
G1 X-21.0007 Y1.6002 
X-23.3959 Y1.6002 
G3  X-24.9961 Y0 R1.6002 
X-23.3959 Y-1.6002 R1.6002 
G1 X-21.0007 Y-1.6002 
X-21.0007 Y-2.3241 
G3  X-17.8257 Y-5.4991 R3.175 
G1 X17.8257 Y-5.4991 
G3  X21.0007 Y-2.3241 R3.175 
G1 X21.0007 Y-1.6002 
G3  X21.8491 Y-0.7772 R1.69672 
G1  G40 X20.4241 Y-0.0178 
G0  X20.4241 Y-0.0178 Z2 
G0  X18.6665 Y-3.1674 
X18.6665 Y-3.1674 Z2 
G1 X18.6665 Y-3.1674 Z-3 F39.6 
G41  P1.5 X20.4013 Y-3.9116 F79.2 
G3  X21.0007 Y-2.3038 R2.46126 
G1 X21.0007 Y-1.6002 
X23.3959 Y-1.6002 
G3  X24.9961 Y0 R1.6002 
X23.3959 Y1.6002 R1.6002 
G1 X21.0007 Y1.6002 
X21.0007 Y2.3241 
G3  X17.8257 Y5.4991 R3.175 
G1 X-17.8257 Y5.4991 
G3  X-21.0007 Y2.3241 R3.175 
G1 X-21.0007 Y1.6002 
X-23.3959 Y1.6002 
G3  X-24.9961 Y0 R1.6002 
X-23.3959 Y-1.6002 R1.6002 
G1 X-21.0007 Y-1.6002 
X-21.0007 Y-2.3241 
G3  X-17.8257 Y-5.4991 R3.175 
G1 X17.8257 Y-5.4991 
G3  X21.0007 Y-2.3241 R3.175 
G1 X21.0007 Y-1.6002 
G3  X21.8491 Y-0.7772 R1.69672 
G1  G40 X20.4241 Y-0.0178 
G0  X20.4241 Y-0.0178 Z2 
M5 M9
M30
%
