(Created 7:48:52 AM 5/1/2011 from Smiley face.dxf)
(Post = Mikes Mach3 Router)
(Tool 8 = .250 Vee bit)
N0001 G90
N0002 G20 G91.1 M3
N0003 G00 X0.1250 Y0.0000 Z0.5000
N0004 G00 X0.1250 Y0.0000 Z0.5000
N0005 G01 X0.1250 Y0.0000 Z-0.0500 F10.00
N0006 G03 X0.1250 Y0.0000 I-0.1250 J0.0000 F40.00
N0007 G00 X0.1250 Y0.0000 Z0.5000
N0008 G00 X1.8215 Y4.2445 Z0.5000
N0009 G01 X1.8215 Y4.2445 Z-0.0500 F10.00
N0010 G03 X1.8215 Y4.2445 I-0.1250 J0.0000 F40.00
N0011 G00 X1.8215 Y4.2445 Z0.5000
N0012 G00 X2.2583 Y5.1186 Z0.5000
N0013 G01 X2.2583 Y5.1186 Z-0.0500 F10.00
N0014 G01 X2.2583 Y5.9313 Z-0.0500 F40.00
N0015 G00 X2.2583 Y5.9313 Z0.5000
N0016 G00 X3.0000 Y6.0244 Z0.5000
N0017 G01 X3.0000 Y6.0244 Z-0.0500 F10.00
N0018 G01 X3.0000 Y5.1186 Z-0.0500 F40.00
N0019 G00 X3.0000 Y5.1186 Z0.5000
N0020 G00 X3.7417 Y5.1186 Z0.5000
N0021 G01 X3.7417 Y5.1186 Z-0.0500 F10.00
N0022 G01 X3.7417 Y5.9313 Z-0.0500 F40.00
N0023 G00 X3.7417 Y5.9313 Z0.5000
N0024 G00 X4.4835 Y5.1186 Z0.5000
N0025 G01 X4.4835 Y5.1186 Z-0.0500 F10.00
N0026 G01 X4.4835 Y5.6320 Z-0.0500 F40.00
N0027 G00 X4.4835 Y5.6320 Z0.5000
N0028 G00 X4.7885 Y4.2445 Z0.5000
N0029 G01 X4.7885 Y4.2445 Z-0.0500 F10.00
N0030 G03 X4.7885 Y4.2445 I-0.1250 J0.0000 F40.00
N0031 G00 X4.7885 Y4.2445 Z0.5000
N0032 G00 X1.5165 Y1.8003 Z0.5000
N0033 G01 X1.5165 Y1.8003 Z-0.0500 F10.00
N0034 G03 X4.4835 Y1.8003 I1.4835 J0.8852 F40.00
N0035 G02 X1.5165 Y1.8003 I-1.4835 J1.2241
N0036 G00 X1.5165 Y1.8003 Z0.5000
N0037 G00 X2.4130 Y2.6855 Z0.5000
N0038 G01 X2.4130 Y2.6855 Z-0.0500 F10.00
N0039 G01 X3.5870 Y2.6855 Z-0.0500 F40.00
N0040 G01 X3.0000 Y3.7022 Z-0.0500
N0041 G01 X2.4130 Y2.6855 Z-0.0500
N0042 G00 X2.4130 Y2.6855 Z0.5000
N0043 G00 X2.0165 Y4.3945 Z0.5000
N0044 G01 X2.0165 Y4.3945 Z-0.0500 F10.00
N0045 G03 X2.0165 Y4.3945 I-0.5000 J0.0000 F40.00
N0046 G00 X2.0165 Y4.3945 Z0.5000
N0047 G00 X4.9835 Y4.3945 Z0.5000
N0048 G01 X4.9835 Y4.3945 Z-0.0500 F10.00
N0049 G03 X4.9835 Y4.3945 I-0.5000 J0.0000 F40.00
N0050 G00 X4.9835 Y4.3945 Z0.5000
N0051 G00 X6.0000 Y3.0244 Z0.5000
N0052 G01 X6.0000 Y3.0244 Z-0.0500 F10.00
N0053 G03 X6.0000 Y3.0244 I-3.0000 J0.0000 F40.00
N0054 G00 X6.0000 Y3.0244 Z0.5000
N0055 G00 X1.5165 Y5.1186 Z0.5000
N0056 G01 X1.5165 Y5.1186 Z-0.0500 F10.00
N0057 G01 X1.5165 Y5.6320 Z-0.0500 F40.00
N0058 G00 X1.5165 Y5.6320 Z0.5000
N0059 G00 X0.8518 Y5.1186 Z0.5000
N0060 G01 X0.8518 Y5.1186 Z-0.0500 F10.00
N0061 G01 X5.1482 Y5.1186 Z-0.0500 F40.00
N0062 G00 X5.1482 Y5.1186 Z0.5000
N0063 M5
N0064 M30
N0065 %
